packages/core/src/svgs/rlc.svg

<svg width="24" height="24" viewBox="0 0 24 24" fill="none" xmlns="http://www.w3.org/2000/svg">
<g clip-path="url(#clip0_31_17369)">
<path d="M0 0H24V24H0V0Z" fill="#F5D107"/>
<path d="M16.7816 10.056C16.8193 10.0182 16.8879 10.0182 16.9565 10.0182C17.4683 10.0281 17.9554 10.24 18.3116 10.6077C18.6677 10.9755 18.8638 11.4692 18.8572 11.9811C18.8572 12.9814 18.1192 13.7691 17.169 13.944H16.9565C16.6067 13.944 16.2566 13.8377 15.9377 13.6628C15.8353 13.591 15.7126 13.5538 15.5876 13.5565C15.4505 13.5565 15.3065 13.5878 15.2002 13.6628C14.9559 13.8064 14.85 14.0567 14.85 14.3378V14.6631C14.8129 15.1044 14.6248 15.5195 14.3174 15.8383C14.0099 16.1571 13.602 16.3602 13.1623 16.4134H12.9557C12.5996 16.4134 12.2495 16.3071 11.9366 16.1258C11.793 16.0572 11.6867 16.0195 11.5492 16.0195C11.4126 16.0175 11.2782 16.0544 11.1617 16.1258C10.9115 16.2694 10.8116 16.5197 10.8116 16.8072V17.1261C10.7731 17.5732 10.5796 17.9928 10.2645 18.3124C9.94948 18.632 9.53268 18.8315 9.08617 18.8764H8.91131C8.40056 18.865 7.91498 18.6524 7.56022 18.2848C7.20545 17.9172 7.01023 17.4244 7.01702 16.9135C7.01854 16.4423 7.1901 15.9874 7.50017 15.6326C7.81023 15.2777 8.23796 15.0467 8.70474 14.982H8.91131C9.26145 14.982 9.61759 15.0882 9.93002 15.2691C10.0329 15.3411 10.155 15.3784 10.2802 15.3758C10.4242 15.3758 10.5617 15.3381 10.668 15.2695C10.9179 15.1255 11.0177 14.8753 11.0177 14.5881C10.9785 14.0922 11.1322 13.6003 11.4466 13.2148C11.7611 12.8294 12.2122 12.5801 12.7059 12.519H12.9185C13.2682 12.519 13.6183 12.6252 13.9372 12.8061C14.0812 12.8751 14.1875 12.9128 14.3246 12.9128C14.4622 12.9128 14.6062 12.8751 14.7125 12.8065C14.9563 12.6625 15.0626 12.4122 15.0626 12.1251C15.0302 11.6258 15.1903 11.1331 15.5101 10.7482C15.8298 10.3634 16.2848 10.1156 16.7816 10.056ZM12.7432 7.58654C12.8117 7.55525 12.8495 7.55525 12.9557 7.55525C13.4664 7.56673 13.952 7.77938 14.3067 8.14696C14.6614 8.51454 14.8567 9.00731 14.85 9.51811C14.8484 9.98869 14.6767 10.4428 14.3665 10.7967C14.0563 11.1506 13.6286 11.3804 13.1623 11.4437H12.9557C12.5996 11.4437 12.2495 11.3374 11.9366 11.1621C11.8326 11.0891 11.7078 11.0518 11.5809 11.0558C11.4429 11.0558 11.3053 11.0871 11.1995 11.1621C10.9492 11.3061 10.8429 11.5564 10.8429 11.8375V12.1624C10.8047 12.6086 10.6122 13.0275 10.2984 13.3471C9.98465 13.6666 9.56931 13.8668 9.12388 13.9131H8.94859C8.69353 13.909 8.44178 13.8547 8.20778 13.7531C7.97379 13.6515 7.76215 13.5047 7.585 13.3212C7.40785 13.1376 7.26869 12.9209 7.17549 12.6834C7.08229 12.446 7.03688 12.1924 7.04188 11.9374C7.04188 10.9748 7.74859 10.1871 8.69874 10.0495H8.90488C9.25502 10.0495 9.61117 10.1558 9.92402 10.3307C10.0265 10.4027 10.149 10.44 10.2742 10.437C10.4177 10.437 10.5553 10.4057 10.6616 10.3307C10.9115 10.1871 11.0117 9.93725 11.0117 9.65568C10.9778 9.15433 11.138 8.65912 11.4592 8.27271C11.7804 7.88629 12.238 7.63829 12.7372 7.58011L12.7432 7.58654ZM8.88002 5.12354C9.92402 5.12354 10.7743 5.98625 10.7743 7.05511C10.7743 8.12396 9.92402 8.98068 8.88002 8.98068C7.83002 8.98068 6.97974 8.12439 6.97974 7.06153C6.97974 5.99868 7.82959 5.12354 8.88002 5.12354Z" fill="white"/>
</g>
<defs>
<clipPath id="clip0_31_17369">
<rect width="24" height="24" fill="white"/>
</clipPath>
</defs>
</svg>

<svg xmlns="http://www.w3.org/2000/svg" width="24" height="24" fill="none" viewBox="0 0 24 24"><g clip-path="url(#a)"><path fill="#F5D107" d="M0 0h24v24H0z"/><path fill="#fff" d="M16.782 10.056c.037-.038.106-.038.174-.038a1.94 1.94 0 0 1 1.901 1.963c0 1-.738 1.788-1.688 1.963h-.213c-.35 0-.7-.106-1.018-.281a.6.6 0 0 0-.35-.107.7.7 0 0 0-.388.107c-.244.143-.35.394-.35.675v.325a1.926 1.926 0 0 1-1.688 1.75h-.206c-.356 0-.707-.106-1.02-.287a.84.84 0 0 0-.387-.107.7.7 0 0 0-.387.107c-.25.143-.35.394-.35.681v.32a1.925 1.925 0 0 1-1.726 1.75h-.175a1.94 1.94 0 0 1-1.894-1.963 1.956 1.956 0 0 1 1.688-1.932h.206c.35 0 .707.106 1.019.287.103.072.225.11.35.107a.7.7 0 0 0 .388-.106c.25-.144.35-.395.35-.682a1.93 1.93 0 0 1 1.688-2.069h.213c.35 0 .7.106 1.018.287.144.07.25.107.388.107a.74.74 0 0 0 .388-.107c.243-.143.35-.394.35-.68a1.956 1.956 0 0 1 1.719-2.07m-4.039-2.47c.069-.03.107-.03.213-.03a1.94 1.94 0 0 1 1.894 1.962 1.95 1.95 0 0 1-1.688 1.926h-.206c-.356 0-.707-.107-1.02-.282a.6.6 0 0 0-.355-.106.66.66 0 0 0-.381.106c-.25.144-.357.394-.357.675v.325a1.925 1.925 0 0 1-1.72 1.751H8.95a1.94 1.94 0 0 1-1.907-1.976c0-.962.707-1.75 1.657-1.887h.206c.35 0 .706.106 1.019.28.103.073.225.11.35.107a.67.67 0 0 0 .388-.106c.25-.144.35-.394.35-.675a1.957 1.957 0 0 1 1.725-2.076zM8.88 5.125c1.044 0 1.894.862 1.894 1.931s-.85 1.926-1.894 1.926c-1.05 0-1.9-.857-1.9-1.92s.85-1.937 1.9-1.937"/></g><defs><clipPath id="a"><path fill="#fff" d="M0 0h24v24H0z"/></clipPath></defs></svg>
